!!!COM:      Bach, Johann Sebastian
!!!CDT:      1685/03/31/-1750/07/28/
!!!OPR@@GER: Das wohltemperirte Clavier
!!!OVM@@GER: Band I
!!!OPR@ENG:  Well-Tempered Clavier
!!!OVM@ENG:  Book I
!!!OTL:      Prelude
!!!OKY:      F-sharp major
!!!ONM:      no. 13
!!!SCT:      BWV 858
!!!OMV:      1
**kern	**kern
*clefF4	*clefG2
*k[f#c#g#d#a#e#]	*k[f#c#g#d#a#e#]
*F#:	*F#:
*M12/16	*M12/16
*MM84	*MM84
=1-	=1-
4.r	16f#
.	16a#
.	16cc#
.	16a#
.	16f#
.	16cc#
16F#	[4.cc#
16A#	.
16c#	.
16A#	.
16F#	.
16d#	.
=2	=2
8.d#	16cc#]
.	16a#
.	8b
8.c#	.
.	16cc#
.	8a#
8.B	.
.	16dd#
.	8g#
8.A#	.
.	16a#
.	[16f#
=3	=3
8.G#	16f#]
.	16b
.	8e#
8.F#	.
.	16b
.	8d#
8.E#	.
.	16b
.	16c#
8.C#	16e#
.	16g#
.	16b
=4	=4
8.F#	16a#
.	16f#
.	8b#
8.G#	.
.	16f#
.	8cc#
8.A#	.
.	16f#
.	8dd#
8.B#	.
.	16g#
.	[16ee#
=5	=5
8.c#	16ee#]
.	16gg#
.	8cc#
8.G#	.
.	16dd#
.	16b#
8.A#	16cc#
.	16ee#
.	16cc#
8.E#	16cc#
.	32ee#
.	32dd#
.	[16cc#
=6	=6
8.F#	16cc#]
.	16aa#
.	8cc#
8.G#	.
.	16dd#
.	16b#
8.C#	16cc#
.	16ee#
.	16gg#
8.r	16ee#
.	16cc#
.	16gg#
=7	=7
16C#	[4.gg#T
16E#	.
16G#	.
16E#	.
16C#	.
16A#	.
8.A#	16gg#]
.	16ee#
.	8ff#
8.G#	.
.	16gg#
.	[16ee#
=8	=8
8.F#	16ee#]
.	16aa#
.	8dd#
8.E#	.
.	16ee#
.	16cc##
8.D#	16ff#
.	16a#
.	8b
8.C#	.
.	16cc#X
.	[16a#
=9	=9
8.BB	16a#]
.	16dd#
.	8g#
8.AA#	.
.	16a#
.	8f#
8.GG#	.
.	16b
.	8en
8.FF#	.
.	16f#
.	16d#
=10	=10
8.EE#	16g#
.	16c##
.	8d#
8.D#	.
.	16c##
.	8g#
8.C##	.
.	16e#
.	8b
8.AA#	.
.	16g#
.	[16ee#
=11	=11
8.D#	16ee#]
.	16e#
.	8f#
8.F#	.
.	16a#
.	8dd#
8.G#	.
.	16e#
.	8g#
8.A#	.
.	16a#
.	16cc##
=12	=12
16D#	[4.dd#T
16F#	.
16A#	.
16F#	.
16D#	.
16B#	.
[4.B#t	16dd#]
.	16ff#
.	16aa#
.	16ff#
.	16dd#
.	16gg##
=13	=13
16B#]	[4.gg##t
16d#	.
16f#	.
16d#	.
16B#	.
16f#	.
16f#	16gg##]
16e#	16aa#
16d#	16bb#
16c#	16ee#
16d#	16ff#
16e#	16dd#
=14	=14
8.A#	16cc#
.	16ee#
.	8a#
8.E#	.
.	16b#
.	16g##
8.F#	16a#
.	16cc#
.	16a#
8.C#	16a#
.	32cc#
.	32b#X
.	[16a#
=15	=15
8.D#	16a#]
.	16ff#
.	8a#
8.E#	.
.	16b#
.	16g##
8.AA#	16a#
.	16cc#
.	16ee#
8r	16cc#
.	16a#
16r	16ff##
=16	=16
16D#	[4.ff##
16F##	.
16A#	.
16F##	.
16D#	.
16c#	.
8.c#	16ff##]
.	16aa#
.	16dd#
8.F##	16cc#
.	16b
.	16a#
=17	=17
8.G#	16b
.	16dd#
.	8g#
8.D#	.
.	16a#
.	16f##
8.En	16g#
.	16b
.	16g#
8.BB	16g#
.	32b
.	32a#
.	[16g#
=18	=18
8.C#	16g#]
.	16een
.	8g#
8.D#	.
.	16a#
.	16f##
8.GG#	16g#
.	16b
.	16dd#
8.r	16b
.	16g#
.	16ee#
=19	=19
16C#	[4.ee#t
16E#	.
16G#	.
16E#	.
16C#	.
16B	.
[8.B	16ee#]
.	16cc#
.	16ee#
16B]	16gg#
16G#	16ee#
16B	16gg#
=20	=20
16e#	[4.bb
16g#	.
16e#	.
16c#	.
16e#	.
16c#	.
8.F#	16bb]
.	16gg#
.	8aa#
8.B	.
.	16bb
.	[16gg#
=21	=21
8.B#	16gg#]
.	16ee#
.	8ff#
8.c#	.
.	16gg#
.	16ee#
8.D#	16ff#
.	16a#
.	8b
8.C#	.
.	16cc#
.	[16a#
=22	=22
8.BB	16a#]
.	16dd#
.	8g#
8.AA#	.
.	16a#
.	8f#
8.GG#	.
.	16e#
.	8b
8.F#	.
.	16g#
.	[16dd#
=23	=23
8.E#	16dd#]
.	16b
.	8gg#
8.C#	.
.	16ee#
.	8b
8.F#	.
.	16g#
.	8cc#
8.AA#	.
.	16a#
.	[16f#
=24	=24
8.BB	16f#]
.	16d#
.	8b
8.C#	.
.	16g#
.	16e#
16FF#	[4.f#
16AA#	.
16C#	.
16AA#	.
16FF#	.
16D#	.
=25	=25
8.D#	16f#]
.	16A#
.	8B
8.C#	.
.	16c#
.	8A#
8.BB	.
.	16d#
.	8G#
8.AA#	.
.	16A#
.	16F#
=26	=26
16GG#	[4.B
16BB	.
16D#	.
16BB	.
16GG#	.
16E#	.
[4.CC#	16B]
.	16e#
.	16g#
.	16e#
.	16B
.	16g#
=27	=27
8.CC#]	16An
.	16c#
.	16f#
8.C#	16B
.	16e#
.	16g#
8.CC#	16c#
.	16f#
.	16an
8.C#	16dn
.	16g#
.	16b
=28	=28
8.CC#	16e#
.	16b
.	8ddn
8.E#	.
.	16b
.	8ee#
8.G#	.
.	16ddn
.	8gg#
8.c#	.
.	16ee#
.	16bb
=29	=29
8.F#	16aa#
.	16cc#
.	8ff#
8.C#	.
.	16gg#
.	16ee#
8.D#	16ff#
.	16a#
.	16ff#
8.AA#	16ff#
.	32aa#
.	32gg#
.	[16ff#
=30	=30
8.BB	16ff#]
.	16g#
.	8ff#
8.C#	.
.	16gg#
.	16ee#
4.FF#	16ff#
.	16cc#
.	16a#
.	8.f#
==	==
*-	*-
!!!AFR:  prelude
!!!EFL:  25/96
!!!END:  1994/01/13/
!!!VID:  3469249251 Bach, BWV 858-01
!!!AST:  Baroque
!!!OCY:  Deutschland
!!!ODT:  1722///
!!!PDT:  1801///
!!!EED:  Walter Hewlett
!!!ENC:  Walter Hewlett
!!!YOR:  Bach Gesellschaft Edition xiv
!!!AFT:  enhanced SCORE
!!!RDT:  2011/10/07/ by Andreas Kornstaedt using massScr2hmd
!!!SCA1: Thematisch-systematisches Verzeichnis der musikalischen Werke 
!!!SCA2: Johann Sebastian Bach: Bach-Werke-Verzeichnis (Schmieder)
!!!YEC1: Copyright 1994, 2000 Center for Computer Assisted Research 
!!!YEC2: in the Humanities
!!!YEM1: Rights to all derivative editions reserved.
!!!YEM2: Refer to licensing agreement for further details.
!!!YEN:  United States of America
!!!ref:  @{OTL}, @{SCT}
!!muse2ps: T^@{OTL} @{ONM} in @{OKY}^C^J.S. Bach\n@{SCT}-@{OMV}^
!!muse2ps: u^@{OPR@ENG}, @{OVM@ENG}^j
